app/client/src/assets/icons/blueprintjs/20px/clip.svg

<svg width="20" height="20" viewBox="0 0 20 20" xmlns="http://www.w3.org/2000/svg">
<path fill-rule="evenodd" clip-rule="evenodd" d="M0 1C0 0.447715 0.447715 0 1 0H6C6.55228 0 7 0.447715 7 1C7 1.55228 6.55228 2 6 2H2V6C2 6.55228 1.55228 7 1 7C0.447715 7 0 6.55228 0 6V1ZM1 20C0.447715 20 0 19.5523 0 19V14C0 13.4477 0.447715 13 1 13C1.55228 13 2 13.4477 2 14V18H6C6.55228 18 7 18.4477 7 19C7 19.5523 6.55228 20 6 20H1ZM19 20C19.5523 20 20 19.5523 20 19V14C20 13.4477 19.5523 13 19 13C18.4477 13 18 13.4477 18 14V18H14C13.4477 18 13 18.4477 13 19C13 19.5523 13.4477 20 14 20H19ZM19 0C19.5523 0 20 0.447715 20 1V6C20 6.55228 19.5523 7 19 7C18.4477 7 18 6.55228 18 6V2H14C13.4477 2 13 1.55228 13 1C13 0.447715 13.4477 0 14 0H19ZM10 14C12.2091 14 14 12.2091 14 10C14 7.79086 12.2091 6 10 6C7.79086 6 6 7.79086 6 10C6 12.2091 7.79086 14 10 14Z" />
</svg>

<svg xmlns="http://www.w3.org/2000/svg" width="20" height="20"><path fill-rule="evenodd" d="M0 1a1 1 0 0 1 1-1h5a1 1 0 0 1 0 2H2v4a1 1 0 0 1-2 0V1Zm1 19a1 1 0 0 1-1-1v-5a1 1 0 1 1 2 0v4h4a1 1 0 1 1 0 2H1Zm18 0a1 1 0 0 0 1-1v-5a1 1 0 1 0-2 0v4h-4a1 1 0 1 0 0 2h5Zm0-20a1 1 0 0 1 1 1v5a1 1 0 1 1-2 0V2h-4a1 1 0 1 1 0-2h5Zm-9 14a4 4 0 1 0 0-8 4 4 0 0 0 0 8Z" clip-rule="evenodd"/></svg>
